X:1
T:Patten, CM
T:Patten, CM
T:Peter Christian Lutkin, 1902
T:Public Domain Courtesy of the Cyber Hymnal™
C:Peter Christian Lutkin, 1902
Z:Public Domain
Z:Courtesy of the Cyber Hymnal™
%%score ( 1 2 ) ( 3 4 )
L:1/8
Q:1/4=170
M:4/4
K:Bb
V:1 treble 
V:2 treble 
V:3 bass 
V:4 bass 
V:1
 F4 F2 F2 | B4 B,4 | [EG]6 [EG]2 | [FG]8 | [EG]4 [EG]2 [EG]2 | [Gc]4 [FB]4 | ([F-B]8 | [FA]8) | %8
 F4 F2 F2 | [Fd]4 [Fd]4 | [^Fd]6 [Fe]2 | [^Fd]4 [Gd]4 | [Gd]4 [Gc]4 | [FB]4 F4 | ([Ec]8 | [DB]8) |] %16
V:2
 F4 F2 F2 | B4 B,4 | x8 | x8 | x8 | x8 | x8 | x8 | F4 F2 F2 | x8 | x8 | x8 | x8 | x4 (E2 D2) | x8 | %15
 x8 |] %16
V:3
 F,4 F,2 F,2 | B,4 B,,4 | [E,B,]6 [E,B,]2 | [D,=B,]8 | [C,C]4 [C,C]2 [C,C]2 | [C,E]4 D4 | %6
 ([F,-D]8 | [F,C]8) | F,4 F,2 F,2 | [B,D]4 [B,D]4 | [A,C]6 [A,C]2 | [A,C]4 [G,B,]4 | %12
 [E,G,]4 [E,E]4 | [F,D]4 (C2 B,2) | ([F,A,]8 | [B,,B,]8) |] %16
V:4
 F,4 F,2 F,2 | B,4 B,,4 | x8 | x8 | x8 | x4 D,2 E,2 | x8 | x8 | F,4 F,2 F,2 | x8 | x8 | x8 | x8 | %13
 x4 F,4 | x8 | x8 |] %16

